src/DGGeoclicker/skin/light/img/DGSchedule__collapseIcon_light.svg

<svg xmlns="http://www.w3.org/2000/svg" width="10" height="6"><path fill-rule="evenodd" clip-rule="evenodd" fill="#666" d="M5 0h.414l4.586 4.586v1.414h-1.414l-3.586-3.586-3.586 3.586h-1.414v-1.414l4.586-4.586h.414z"/></svg>

<svg xmlns="http://www.w3.org/2000/svg" width="10" height="6">
    <path d="M 5,0 H 5.414 L 10,4.586 V 6 H 8.586 L 5,2.414 1.414,6 H 0 V 4.586 L 4.586,0 H 5 z" fill="#666" fill-rule="evenodd"/>
</svg>
